src/topics/icons/open-graph.svg

<svg height="209" preserveAspectRatio="xMidYMid" viewBox="0 0 256 209" width="256" xmlns="http://www.w3.org/2000/svg"><path d="m231.941469 142.042393c-3.532931 0-6.955863.771985-9.979805 2.145959-1.325973-.805985-1.998961-1.587969-3.998922-2.349955v-89.124259l-90.212237-52.49997458-75.7625204 44.72112648c-1.2859749-.7529853-2.5799497-1.5389699-3.9069238-2.3429542-.1089979-13.1677429-10.8427881-23.8475342-24.0355305-23.8475342-13.260741 0-24.0455303 10.7887892-24.0455303 24.0495302s10.7907893 24.0495302 24.0515303 24.0495302c3.5329309 0 7.0308626-.7719849 10.0548035-2.1459581 1.2529756.7619851 2.8599441 1.5019708 3.8599246 2.2239566v89.9302426l90.0842406 52.142982 76.496506-44.746126c1.123977.661987 2.229956 1.344974 3.384934 2.04596.109997 13.167743 10.834788 23.847534 24.02753 23.847534 13.260741 0 24.040531-10.789788 24.040531-24.05053 0-13.260741-10.79779-24.04953-24.058531-24.04953" fill="#b8c6c9"/><g fill="#759bc5" transform="translate(13 15)"><path d="m114.875896 179.068631 77.148377-45.140429v-88.6491341l-77.152379-44.91906007-77.1063575 45.54811117v88.542956z"/><path d="m229.932656 151.290213c0 6.048107-4.897245 10.950298-10.937015 10.950298-6.040769 0-10.937015-4.902191-10.937015-10.950298 0-6.047105 4.896246-10.950298 10.937015-10.950298 6.03977 0 10.937015 4.903193 10.937015 10.950298"/><path d="m.07225188 27.7838332c0-6.0471047 4.89624522-10.950298 10.93701532-10.950298 6.0397695 0 10.9370152 4.9031933 10.9370152 10.950298 0 6.0471048-4.8972457 10.950298-10.9370152 10.950298-6.0407701 0-10.93701532-4.9031932-10.93701532-10.950298"/></g><path d="m232.0958 172.749399c-3.619979 0-6.564401-2.945424-6.564401-6.565403s2.944422-6.564402 6.564401-6.564402 6.564402 2.944423 6.564402 6.564402-2.944423 6.565403-6.564402 6.565403zm-89.159368 7.355052c7.144878-10.292469 15.612847-25.042608 20.822134-42.760187 11.066106 2.270869 21.394605 5.950897 32.598825 11.541498zm-53.9213725-102.0639879c-1.7264207 7.2029273-2.9093941 14.87424-3.1766141 22.9448819-10.0582768.003002-19.8583413.003002-30.8674006.003002v-35.4171448c11.0090593 5.9348837 22.5975955 9.9361764 34.0440147 12.4692609zm-64.9814731-28.6936119c-3.6199789 0-6.5654026-2.9444229-6.5654026-6.5644018s2.9454237-6.5644019 6.5654026-6.5644019c3.6199788 0 6.5644019 2.944423 6.5644019 6.5644019s-2.9444231 6.5644018-6.5644019 6.5644018zm87.4249416-19.1627691c-7.177907 10.024249-15.3936672 24.0828178-20.5248897 41.1348499-10.3455133-2.2508523-20.1035432-5.7687471-30.6091882-10.9650232zm19.385953 97.0808869c.006005-2.691214.014012-5.424463.022018-8.188738 5.672668-1.136935 10.175373-5.512536 11.523483-11.106139 6.931704.006005 13.555154.010008 20.052501.011009-.264218 7.480155-1.347109 14.677078-2.990461 21.49669-8.787231-1.429176-18.114907-2.103732-28.607541-2.212822zm-.01201 7.000761c9.866119.101083 18.591299.700578 26.780037 1.974625-6.9267 22.824783-19.52907 40.671469-26.634917 49.494729-.121101-16.324433-.16914-33.120254-.14512-51.469354zm-39.8818186 4.053337c5.1402298 17.120087 13.3659986 31.12161 20.5509116 41.065792l-52.4841895-30.33196c6.4242866-3.018483 17.4403517-7.492165 31.9332779-10.733832zm22.5365456-30.345973c1.327091 5.502528 5.708697 9.821082 11.25326 11.041086-.009007 2.791297-.017014 5.551569-.023019 8.268804-10.809896.18215-20.715047 1.321088-29.5453129 2.970445-1.7003992-6.985749-2.8123141-14.432876-3.0615193-22.268324 6.9647313-.002003 14.0165342-.006005 21.3765912-.012011zm11.225237-26.2756215c.007005 2.762273.015012 5.5175403.024019 8.2688043-5.530551 1.2180023-9.903149 5.5195421-11.240249 11.0040552-7.360057.006005-14.4108587.010008-21.3745891.01301.2672199-7.6522963 1.3511118-14.926282 2.9984674-21.7579038 9.0844757 1.5823021 18.7113977 2.3369231 29.5923517 2.4720343zm-.069057-53.7372203c.009007 15.3556361.019015 31.0845794.052043 46.7344577-10.243429-.1261038-19.26085-.7946539-27.7338223-2.2148226 7.1218603-23.3041769 20.2746843-40.6764726 27.6787773-49.14344zm38.968067 43.1505084c-5.194274-17.3482758-13.51312-31.7681419-20.568926-41.8814641l53.775251 31.2717334c-6.640464 3.0154815-18.1069 7.4861604-33.206325 10.6097307zm-32.841025-43.1545117-.003002-4.6988667c7.014771 8.5750564 19.692204 26.2175744 26.716985 49.0053264-8.060633 1.367125-16.996987 2.291886-26.66194 2.4269971-.033028-15.6488773-.043036-31.3778207-.052043-46.7334568zm-2.832331 84.4104621c-4.343574 0-7.877482-3.533909-7.877482-7.877483 0-4.343575 3.533908-7.8774827 7.877482-7.8774827 4.343575 0 7.877482 3.5339077 7.877482 7.8774827 0 4.343574-3.533907 7.877483-7.877482 7.877483zm-3.083537 73.845766c-7.312017-8.343866-20.581937-25.7632-27.8008776-49.143439 8.3118406-1.539267 17.5934776-2.602142 27.6517546-2.78329-.02402 18.518238.025021 35.457176.149123 51.926729zm17.524421-85.245147c-1.36112-5.5745878-5.85582-9.9321736-11.516477-11.0651059-.008007-2.7312476-.016014-5.4674991-.023019-8.2097558 10.398557-.1371128 19.957422-1.1309306 28.529476-2.6031421 1.694395 6.9256992 2.811314 14.2537293 3.075531 21.8900138-6.500348-.002002-13.129804-.006006-20.065511-.01201zm57.71149-.010008c-10.008235.014011-21.207451.022018-31.8382.022018-.257211-8.0666385-1.55628-15.7769834-3.291708-23.0429626 16.321431-3.3857861 29.124967-8.2928241 35.129908-11.4884538zm-145.1194182 7.032786c11.0090593 0 20.8521592 0 30.905432-.003002.2432002 8.296828 1.3310954 16.153292 3.0825366 23.505343-15.6198535 3.494876-26.9822036 8.377894-33.9879686 11.589536zm110.2457212 22.615611c1.678381-7.150884 2.616153-14.721115 2.872364-22.623617 10.628746-.001001 21.993098-.008007 32.001333-.023019v35.32707c-11.009059-6.128042-22.947884-10.183379-34.873697-12.680434zm66.879034 20.261673c-4.113384 0-8.042618 1.638348-10.796884 4.286527-4.159423-2.609147-8.197746-4.990106-12.20104-7.171901v-90.2362554l-81.375965-47.436035-76.5860222 45.2442314c-4.0873634-2.2878827-8.2778118-4.8169639-12.7454882-7.6192699.5794768-1.6133276.93577-3.3427507.93577-5.1522397 0-8.4459502-6.8596447-15.3166041-15.3055949-15.3166041s-15.31059905 6.8706539-15.31059905 15.3166041c0 8.4459501 6.87465715 15.3176048 15.32060735 15.3176048 4.1133848 0 7.6162674-1.6383482 10.3715347-4.2865274 4.0823593 2.5601067 8.5590431 4.9000323 11.5615139 7.0488005v91.0229027l81.7562774 47.11477 77.60486-45.284264c3.918225 2.206816 8.038615 4.638818 12.307128 7.31602-.579477 1.613328-.882726 3.342751-.882726 5.15224 0 8.44595 6.885665 15.317605 15.331616 15.317605 8.44595 0 15.324611-6.871655 15.324611-15.317605s-6.863648-15.316604-15.309599-15.316604z" fill="#343532"/></svg>

<?xml version="1.0" encoding="UTF-8" standalone="no" ?>
<svg width="256px" height="209px" viewBox="0 0 256 209" version="1.1" xmlns="http://www.w3.org/2000/svg" xmlns:xlink="http://www.w3.org/1999/xlink" preserveAspectRatio="xMidYMid">
    <g>
        <path d="M231.941469,142.042393 C228.408538,142.042393 224.985606,142.814378 221.961664,144.188352 C220.635691,143.382367 219.962703,142.600383 217.962742,141.838397 L217.962742,52.714138 L127.750505,0.214163424 L51.9879846,44.9352899 C50.7020097,44.1823046 49.4080349,43.39632 48.0810608,42.5923357 C47.9720629,29.4245928 37.2382727,18.7448015 24.0455303,18.7448015 C10.7847893,18.7448015 0,29.5335907 0,42.7943317 C0,56.0550727 10.7907893,66.8438619 24.0515303,66.8438619 C27.5844612,66.8438619 31.0823929,66.071877 34.1063338,64.6979038 C35.3593094,65.4598889 36.9662779,66.1998746 37.9662584,66.9218604 L37.9662584,156.852103 L128.050499,208.995085 L204.547005,164.248959 C205.670982,164.910946 206.776961,165.593933 207.931939,166.294919 C208.041936,179.462662 218.766727,190.142453 231.959469,190.142453 C245.22021,190.142453 256,179.352665 256,166.091923 C256,152.831182 245.20221,142.042393 231.941469,142.042393" fill="#B8C6C9"></path>
        <g transform="translate(13.000000, 15.000000)" fill="#759BC5">
            <path d="M114.875896,179.068631 L192.024273,133.928202 L192.024273,45.2790679 L114.871894,0.360007825 L37.7655365,45.908119 L37.7655365,134.451075 L114.875896,179.068631"></path>
            <path d="M229.932656,151.290213 C229.932656,157.33832 225.035411,162.240511 218.995641,162.240511 C212.954872,162.240511 208.058626,157.33832 208.058626,151.290213 C208.058626,145.243108 212.954872,140.339915 218.995641,140.339915 C225.035411,140.339915 229.932656,145.243108 229.932656,151.290213"></path>
            <path d="M0.0722518818,27.7838332 C0.0722518818,21.7367285 4.9684971,16.8335352 11.0092672,16.8335352 C17.0490367,16.8335352 21.9462824,21.7367285 21.9462824,27.7838332 C21.9462824,33.830938 17.0490367,38.7341312 11.0092672,38.7341312 C4.9684971,38.7341312 0.0722518818,33.830938 0.0722518818,27.7838332"></path>
        </g>
        <path d="M232.0958,172.749399 C228.475821,172.749399 225.531399,169.803975 225.531399,166.183996 C225.531399,162.564017 228.475821,159.619594 232.0958,159.619594 C235.715779,159.619594 238.660202,162.564017 238.660202,166.183996 C238.660202,169.803975 235.715779,172.749399 232.0958,172.749399 L232.0958,172.749399 L232.0958,172.749399 Z M142.936432,180.104451 C150.08131,169.811982 158.549279,155.061843 163.758566,137.344264 C174.824672,139.615133 185.153171,143.295161 196.357391,148.885762 L142.936432,180.104451 L142.936432,180.104451 Z M89.0150595,78.0404631 C87.2886388,85.2433904 86.1056654,92.9147031 85.8384454,100.985345 C75.7801686,100.988347 65.9801041,100.988347 54.9710448,100.988347 L54.9710448,65.5712022 C65.9801041,71.5060859 77.5686403,75.5073786 89.0150595,78.0404631 L89.0150595,78.0404631 L89.0150595,78.0404631 Z M24.0335864,49.3468512 C20.4136075,49.3468512 17.4681838,46.4024283 17.4681838,42.7824494 C17.4681838,39.1624705 20.4136075,36.2180475 24.0335864,36.2180475 C27.6535652,36.2180475 30.5979883,39.1624705 30.5979883,42.7824494 C30.5979883,46.4024283 27.6535652,49.3468512 24.0335864,49.3468512 L24.0335864,49.3468512 L24.0335864,49.3468512 Z M111.458528,30.1840821 C104.280621,40.2083311 96.0648608,54.2668999 90.9336383,71.318932 C80.588125,69.0680797 70.8300951,65.5501849 60.3244501,60.3539088 L111.458528,30.1840821 L111.458528,30.1840821 Z M130.844481,127.264969 C130.850486,124.573755 130.858493,121.840506 130.866499,119.076231 C136.539167,117.939296 141.041872,113.563695 142.389982,107.970092 C149.321686,107.976097 155.945136,107.9801 162.442483,107.981101 C162.178265,115.461256 161.095374,122.658179 159.452022,129.477791 C150.664791,128.048615 141.337115,127.374059 130.844481,127.264969 L130.844481,127.264969 L130.844481,127.264969 Z M130.832471,134.26573 C140.69859,134.366813 149.42377,134.966308 157.612508,136.240355 C150.685808,159.065138 138.083438,176.911824 130.977591,185.735084 C130.85649,169.410651 130.808451,152.61483 130.832471,134.26573 L130.832471,134.26573 L130.832471,134.26573 Z M90.9506524,138.319067 C96.0908822,155.439154 104.316651,169.440677 111.501564,179.384859 L59.0173745,149.052899 C65.4416611,146.034416 76.4577262,141.560734 90.9506524,138.319067 L90.9506524,138.319067 L90.9506524,138.319067 Z M113.487198,107.973094 C114.814289,113.475622 119.195895,117.794176 124.740458,119.01418 C124.731451,121.805477 124.723444,124.565749 124.717439,127.282984 C113.907543,127.465134 104.002392,128.604072 95.1721261,130.253429 C93.4717269,123.26768 92.359812,115.820553 92.1106068,107.985105 C99.0753381,107.983102 106.127141,107.9791 113.487198,107.973094 L113.487198,107.973094 L113.487198,107.973094 Z M124.712435,81.6974725 C124.71944,84.4597455 124.727447,87.2150128 124.736454,89.9662768 C119.205903,91.1842791 114.833305,95.4858189 113.496205,100.970332 C106.136148,100.976337 99.0853463,100.98034 92.1216159,100.983342 C92.3888358,93.3310457 93.4727277,86.05706 95.1200833,79.2254382 C104.204559,80.8077403 113.831481,81.5623613 124.712435,81.6974725 L124.712435,81.6974725 L124.712435,81.6974725 Z M124.643378,27.9602522 C124.652385,43.3158883 124.662393,59.0448316 124.695421,74.6947099 C114.451992,74.5686061 105.434571,73.900056 96.9615987,72.4798873 C104.083459,49.1757104 117.236283,31.8034147 124.640376,23.3364473 L124.643378,27.9602522 L124.643378,27.9602522 Z M163.611445,71.1107606 C158.417171,53.7624848 150.098325,39.3426187 143.042519,29.2292965 L196.81777,60.5010299 C190.177306,63.5165114 178.71087,67.9871903 163.611445,71.1107606 L163.611445,71.1107606 L163.611445,71.1107606 Z M130.77042,27.9562489 L130.767418,23.2573822 C137.782189,31.8324386 150.459622,49.4749566 157.484403,72.2627086 C149.42377,73.6298336 140.487416,74.5545946 130.822463,74.6897057 C130.789435,59.0408284 130.779427,43.311885 130.77042,27.9562489 L130.77042,27.9562489 L130.77042,27.9562489 Z M127.938089,112.366711 C123.594515,112.366711 120.060607,108.832802 120.060607,104.489228 C120.060607,100.145653 123.594515,96.6117453 127.938089,96.6117453 C132.281664,96.6117453 135.815571,100.145653 135.815571,104.489228 C135.815571,108.832802 132.281664,112.366711 127.938089,112.366711 L127.938089,112.366711 L127.938089,112.366711 Z M124.854552,186.212477 C117.542535,177.868611 104.272615,160.449277 97.0536744,137.069038 C105.365515,135.529771 114.647152,134.466896 124.705429,134.285748 C124.681409,152.803986 124.73045,169.742924 124.854552,186.212477 L124.854552,186.212477 L124.854552,186.212477 Z M142.378973,100.96733 C141.017853,95.3927422 136.523153,91.0351564 130.862496,89.9022241 C130.854489,87.1709765 130.846482,84.434725 130.839477,81.6924683 C141.238034,81.5553555 150.796899,80.5615377 159.368953,79.0893262 C161.063348,86.0150254 162.180267,93.3430555 162.444484,100.97934 C155.944136,100.977338 149.31468,100.973334 142.378973,100.96733 L142.378973,100.96733 L142.378973,100.96733 Z M200.090463,100.957322 C190.082228,100.971333 178.883012,100.97934 168.252263,100.97934 C167.995052,92.9127015 166.695983,85.2023566 164.960555,77.9363774 C181.281986,74.5505913 194.085522,69.6435533 200.090463,66.4479236 L200.090463,100.957322 L200.090463,100.957322 Z M54.9710448,107.990108 C65.9801041,107.990108 75.823204,107.990108 85.8764768,107.987106 C86.119677,116.283934 87.2075722,124.140398 88.9590134,131.492449 C73.3391599,134.987325 61.9768098,139.870343 54.9710448,143.081985 L54.9710448,107.990108 L54.9710448,107.990108 Z M165.216766,130.605719 C166.895147,123.454835 167.832919,115.884604 168.08913,107.982102 C178.717876,107.981101 190.082228,107.974095 200.090463,107.959083 L200.090463,143.286153 C189.081404,137.158111 177.142579,133.102774 165.216766,130.605719 L165.216766,130.605719 L165.216766,130.605719 Z M232.0958,150.867392 C227.982416,150.867392 224.053182,152.50574 221.298916,155.153919 C217.139493,152.544772 213.10117,150.163813 209.097876,147.982018 L209.097876,57.7457626 L127.721911,10.3097276 L51.1358888,55.553959 C47.0485254,53.2660763 42.858077,50.7369951 38.3904006,47.9346891 C38.9698774,46.3213615 39.3261706,44.5919384 39.3261706,42.7824494 C39.3261706,34.3364992 32.4665259,27.4658453 24.0205757,27.4658453 C15.5746255,27.4658453 8.70997665,34.3364992 8.70997665,42.7824494 C8.70997665,51.2283995 15.5846338,58.1000542 24.030584,58.1000542 C28.1439688,58.1000542 31.6468514,56.461706 34.4021187,53.8135268 C38.484478,56.3736335 42.9611618,58.7135591 45.9636326,60.8623273 L45.9636326,151.88523 L127.71991,199 L205.32477,153.715736 C209.242995,155.922552 213.363385,158.354554 217.631898,161.031756 C217.052421,162.645084 216.749172,164.374507 216.749172,166.183996 C216.749172,174.629946 223.634837,181.501601 232.080788,181.501601 C240.526738,181.501601 247.405399,174.629946 247.405399,166.183996 C247.405399,157.738046 240.541751,150.867392 232.0958,150.867392 L232.0958,150.867392 L232.0958,150.867392 Z" fill="#343532"></path>
    </g>
</svg>
